app/branding/creatorsgarten.svg

<svg width="888" height="398" viewBox="0 0 888 398" fill="none" xmlns="http://www.w3.org/2000/svg">
<path d="M38 220.192H148.301V330.492H38V220.192Z" fill="black"/>
<path d="M403.422 220.192H513.722L403.422 330.492V220.192Z" fill="black"/>
<path d="M403.422 220.192H513.722L403.422 330.492V220.192Z" fill="black"/>
<path d="M90.7954 162.72C79.7964 162.72 70.3515 160.305 62.4609 155.475C54.6181 150.646 48.5686 143.975 44.3125 135.463C40.1042 126.904 38 117.054 38 105.912C38 94.7226 40.152 84.8482 44.456 76.2888C48.7599 67.6816 54.8333 60.9871 62.6761 56.2053C70.5667 51.3757 79.892 48.9609 90.6519 48.9609C99.5946 48.9609 107.509 50.6106 114.396 53.9101C121.33 57.1617 126.853 61.7761 130.966 67.7534C135.079 73.6828 137.422 80.6164 137.996 88.5541H113.176C112.172 83.2463 109.781 78.8232 106.003 75.2847C102.273 71.6983 97.2753 69.9052 91.0106 69.9052C85.7024 69.9052 81.0397 71.3397 77.0227 74.2088C73.0057 77.03 69.8733 81.0945 67.6257 86.4023C65.4259 91.7101 64.326 98.0699 64.326 105.482C64.326 112.989 65.4259 119.444 67.6257 124.848C69.8255 130.204 72.91 134.34 76.8792 137.257C80.8963 140.126 85.6067 141.56 91.0106 141.56C94.8364 141.56 98.2556 140.843 101.268 139.408C104.329 137.926 106.887 135.798 108.944 133.025C111 130.251 112.411 126.88 113.176 122.911H137.996C137.374 130.706 135.078 137.615 131.109 143.64C127.14 149.618 121.736 154.304 114.898 157.699C108.059 161.046 100.025 162.72 90.7954 162.72Z" fill="black"/>
<path d="M155.278 160.568V50.3955H180.456V68.7575H181.604C183.613 62.3978 187.056 57.4964 191.934 54.0535C196.859 50.5628 202.478 48.8175 208.791 48.8175C210.226 48.8175 211.828 48.8892 213.597 49.0327C215.414 49.1283 216.921 49.2957 218.116 49.5347V73.4198C217.016 73.0372 215.271 72.7025 212.88 72.4156C210.536 72.0809 208.265 71.9135 206.065 71.9135C201.331 71.9135 197.075 72.9416 193.297 74.9978C189.567 77.0061 186.626 79.8035 184.474 83.3898C182.322 86.9761 181.246 91.1124 181.246 95.7986V160.568H155.278Z" fill="black"/>
<path d="M275.569 162.72C264.522 162.72 254.982 160.424 246.948 155.834C238.962 151.196 232.816 144.645 228.513 136.181C224.209 127.669 222.057 117.651 222.057 106.127C222.057 94.7944 224.209 84.8482 228.513 76.2888C232.864 67.6816 238.938 60.9871 246.733 56.2053C254.528 51.3757 263.686 48.9609 274.206 48.9609C280.997 48.9609 287.405 50.0607 293.431 52.2604C299.504 54.4122 304.86 57.7594 309.499 62.3021C314.185 66.8448 317.868 72.6308 320.546 79.66C323.224 86.6414 324.563 94.9617 324.563 104.621V112.583H234.251V95.0813H299.671C299.624 90.1082 298.548 85.6851 296.444 81.8118C294.339 77.8908 291.398 74.8065 287.62 72.5591C283.89 70.3116 279.538 69.1879 274.565 69.1879C269.257 69.1879 264.594 70.479 260.577 73.0611C256.56 75.5955 253.428 78.9427 251.18 83.1029C248.98 87.2152 247.856 91.734 247.809 96.6593V111.937C247.809 118.345 248.98 123.844 251.324 128.434C253.667 132.977 256.943 136.468 261.151 138.906C265.359 141.297 270.285 142.493 275.928 142.493C279.706 142.493 283.125 141.967 286.186 140.915C289.246 139.815 291.9 138.213 294.148 136.109C296.396 134.005 298.093 131.399 299.241 128.291L323.487 131.016C321.957 137.424 319.039 143.019 314.735 147.8C310.479 152.534 305.028 156.216 298.38 158.846C291.733 161.429 284.129 162.72 275.569 162.72Z" fill="black"/>
<path d="M374.197 162.791C367.215 162.791 360.926 161.548 355.331 159.062C349.784 156.527 345.384 152.797 342.132 147.872C338.928 142.947 337.326 136.874 337.326 129.654C337.326 123.437 338.474 118.297 340.769 114.232C343.065 110.168 346.197 106.916 350.166 104.477C354.136 102.039 358.607 100.198 363.581 98.9545C368.602 97.6634 373.79 96.731 379.147 96.1572C385.603 95.4877 390.839 94.89 394.856 94.364C398.873 93.7902 401.79 92.9295 403.607 91.7818C405.473 90.5864 406.405 88.7454 406.405 86.2589V85.8285C406.405 80.4251 404.803 76.241 401.599 73.2763C398.395 70.3116 393.78 68.8293 387.754 68.8293C381.394 68.8293 376.349 70.216 372.619 72.9894C368.937 75.7628 366.45 79.0384 365.159 82.816L340.913 79.3731C342.826 72.6786 345.982 67.0839 350.382 62.589C354.781 58.0463 360.161 54.6513 366.522 52.4038C372.882 50.1086 379.912 48.9609 387.611 48.9609C392.919 48.9609 398.204 49.5826 403.464 50.8258C408.724 52.0691 413.531 54.1253 417.882 56.9943C422.234 59.8156 425.725 63.6649 428.355 68.5423C431.033 73.4198 432.372 79.5166 432.372 86.8327V160.568H407.409V145.434H406.548C404.97 148.494 402.747 151.363 399.877 154.041C397.056 156.671 393.493 158.799 389.189 160.424C384.933 162.002 379.936 162.791 374.197 162.791ZM380.94 143.712C386.152 143.712 390.672 142.684 394.497 140.628C398.323 138.524 401.264 135.75 403.321 132.307C405.425 128.865 406.477 125.111 406.477 121.046V108.064C405.664 108.733 404.277 109.355 402.316 109.929C400.403 110.503 398.251 111.005 395.86 111.435C393.469 111.865 391.102 112.248 388.759 112.583C386.415 112.917 384.383 113.204 382.661 113.443C378.788 113.969 375.321 114.83 372.26 116.026C369.2 117.221 366.785 118.895 365.015 121.046C363.246 123.15 362.361 125.876 362.361 129.223C362.361 134.005 364.107 137.615 367.598 140.054C371.089 142.493 375.536 143.712 380.94 143.712Z" fill="black"/>
<path d="M509.462 50.3955V70.479H446.122V50.3955H509.462ZM461.76 24H487.727V127.43C487.727 130.921 488.253 133.599 489.305 135.463C490.405 137.281 491.84 138.524 493.609 139.193C495.379 139.863 497.339 140.197 499.491 140.197C501.117 140.197 502.6 140.078 503.939 139.839C505.326 139.6 506.378 139.385 507.095 139.193L511.471 159.492C510.084 159.97 508.099 160.496 505.517 161.07C502.982 161.644 499.874 161.978 496.192 162.074C489.688 162.265 483.83 161.285 478.617 159.133C473.405 156.934 469.268 153.539 466.207 148.948C463.195 144.358 461.712 138.619 461.76 131.734V24Z" fill="black"/>
<path d="M648.738 160.568V50.3955H673.916V68.7575H675.064C677.073 62.3978 680.516 57.4964 685.394 54.0535C690.319 50.5628 695.939 48.8175 702.251 48.8175C703.686 48.8175 705.288 48.8892 707.057 49.0327C708.874 49.1283 710.381 49.2957 711.576 49.5347V73.4198C710.476 73.0372 708.731 72.7025 706.34 72.4156C703.997 72.0809 701.725 71.9135 699.525 71.9135C694.791 71.9135 690.535 72.9416 686.757 74.9978C683.027 77.0061 680.086 79.8035 677.934 83.3898C675.782 86.9761 674.706 91.1124 674.706 95.7986V160.568H648.738Z" fill="black"/>
<path d="M811.872 79.5166L788.2 82.0987C787.53 79.7078 786.359 77.4604 784.685 75.3564C783.059 73.2524 780.859 71.5549 778.086 70.2638C775.312 68.9727 771.917 68.3272 767.9 68.3272C762.496 68.3272 757.953 69.4987 754.27 71.8418C750.636 74.1849 748.843 77.2213 748.89 80.9511C748.843 84.1549 750.014 86.761 752.405 88.7693C754.844 90.7777 758.861 92.4274 764.456 93.7185L783.25 97.7352C793.676 99.9826 801.423 103.545 806.492 108.422C811.609 113.3 814.191 119.684 814.239 127.574C814.191 134.507 812.159 140.628 808.142 145.936C804.172 151.196 798.649 155.308 791.571 158.273C784.494 161.237 776.364 162.72 767.182 162.72C753.696 162.72 742.841 159.898 734.615 154.256C726.39 148.566 721.488 140.652 719.91 130.514L745.232 128.076C746.38 133.049 748.819 136.802 752.549 139.337C756.279 141.871 761.133 143.138 767.11 143.138C773.28 143.138 778.229 141.871 781.959 139.337C785.737 136.802 787.626 133.67 787.626 129.94C787.626 126.785 786.407 124.178 783.968 122.122C781.577 120.066 777.846 118.488 772.777 117.388L753.983 113.443C743.415 111.244 735.596 107.538 730.527 102.326C725.458 97.0657 722.947 90.419 722.995 82.3856C722.947 75.5955 724.788 69.7139 728.518 64.7408C732.296 59.72 737.533 55.8467 744.228 53.1211C750.971 50.3477 758.742 48.9609 767.541 48.9609C780.453 48.9609 790.615 51.7105 798.027 57.2095C805.488 62.7086 810.102 70.1443 811.872 79.5166Z" fill="black"/>
<path d="M218.712 374C209.387 374 201.377 372.733 194.682 370.198C187.987 367.712 182.607 364.365 178.542 360.157C174.477 355.949 171.655 351.287 170.077 346.17L193.462 340.504C194.514 342.655 196.045 344.783 198.053 346.887C200.062 349.039 202.764 350.808 206.159 352.195C209.602 353.63 213.93 354.347 219.143 354.347C226.507 354.347 232.604 352.554 237.434 348.967C242.265 345.429 244.679 339.595 244.679 331.466V310.594H243.388C242.049 313.271 240.089 316.021 237.506 318.842C234.972 321.663 231.6 324.03 227.392 325.943C223.231 327.856 217.995 328.812 211.682 328.812C203.218 328.812 195.542 326.828 188.656 322.859C181.818 318.842 176.366 312.865 172.301 304.927C168.284 296.942 166.275 286.948 166.275 274.945C166.275 262.847 168.284 252.638 172.301 244.318C176.366 235.95 181.842 229.614 188.728 225.31C195.614 220.959 203.29 218.783 211.754 218.783C218.21 218.783 223.518 219.883 227.679 222.083C231.887 224.234 235.235 226.84 237.721 229.901C240.208 232.913 242.097 235.759 243.388 238.436H244.823V220.218H270.432V332.183C270.432 341.603 268.184 349.398 263.689 355.566C259.193 361.735 253.048 366.349 245.253 369.409C237.458 372.47 228.611 374 218.712 374ZM218.927 308.442C224.427 308.442 229.113 307.103 232.987 304.425C236.861 301.747 239.802 297.898 241.81 292.877C243.819 287.856 244.823 281.831 244.823 274.802C244.823 267.868 243.819 261.795 241.81 256.583C239.85 251.371 236.932 247.33 233.059 244.461C229.233 241.544 224.523 240.086 218.927 240.086C213.141 240.086 208.311 241.592 204.437 244.605C200.564 247.617 197.647 251.754 195.686 257.014C193.725 262.226 192.745 268.155 192.745 274.802C192.745 281.544 193.725 287.45 195.686 292.518C197.694 297.539 200.636 301.46 204.509 304.282C208.43 307.055 213.237 308.442 218.927 308.442Z" fill="black"/>
<path d="M324.71 332.614C317.728 332.614 311.44 331.37 305.845 328.884C300.297 326.349 295.898 322.62 292.646 317.694C289.442 312.769 287.84 306.696 287.84 299.476C287.84 293.26 288.987 288.119 291.283 284.055C293.578 279.99 296.711 276.738 300.68 274.3C304.649 271.861 309.121 270.02 314.094 268.777C319.115 267.486 324.304 266.553 329.66 265.979C336.116 265.31 341.353 264.712 345.37 264.186C349.387 263.612 352.304 262.752 354.121 261.604C355.986 260.409 356.919 258.568 356.919 256.081V255.651C356.919 250.247 355.317 246.063 352.112 243.099C348.908 240.134 344.294 238.652 338.268 238.652C331.908 238.652 326.862 240.038 323.132 242.812C319.45 245.585 316.963 248.861 315.672 252.638L291.426 249.195C293.339 242.501 296.496 236.906 300.895 232.411C305.295 227.869 310.675 224.473 317.035 222.226C323.395 219.931 330.425 218.783 338.124 218.783C343.433 218.783 348.717 219.405 353.977 220.648C359.238 221.891 364.044 223.947 368.396 226.817C372.748 229.638 376.239 233.487 378.869 238.365C381.547 243.242 382.886 249.339 382.886 256.655V330.39H357.923V315.256H357.062C355.484 318.316 353.26 321.185 350.391 323.863C347.569 326.493 344.007 328.621 339.703 330.247C335.446 331.825 330.449 332.614 324.71 332.614ZM331.453 313.534C336.666 313.534 341.185 312.506 345.011 310.45C348.837 308.346 351.778 305.573 353.834 302.13C355.938 298.687 356.99 294.933 356.99 290.869V277.886C356.177 278.556 354.79 279.177 352.83 279.751C350.917 280.325 348.765 280.827 346.374 281.257C343.983 281.688 341.615 282.07 339.272 282.405C336.929 282.74 334.897 283.026 333.175 283.266C329.301 283.792 325.834 284.652 322.774 285.848C319.713 287.043 317.298 288.717 315.529 290.869C313.759 292.973 312.875 295.698 312.875 299.045C312.875 303.827 314.62 307.438 318.111 309.876C321.602 312.315 326.049 313.534 331.453 313.534Z" fill="black"/>
<path d="M586.652 220.218V240.301H523.312V220.218H586.652ZM538.95 193.822H564.917V297.252C564.917 300.743 565.443 303.421 566.495 305.286C567.595 307.103 569.03 308.346 570.799 309.015C572.569 309.685 574.529 310.02 576.681 310.02C578.307 310.02 579.79 309.9 581.129 309.661C582.516 309.422 583.568 309.207 584.285 309.015L588.661 329.314C587.274 329.792 585.289 330.318 582.707 330.892C580.172 331.466 577.064 331.801 573.382 331.896C566.878 332.088 561.02 331.107 555.807 328.956C550.594 326.756 546.458 323.361 543.397 318.77C540.384 314.18 538.902 308.442 538.95 301.556V193.822Z" fill="black"/>
<path d="M653.108 332.542C642.061 332.542 632.52 330.247 624.486 325.656C616.5 321.018 610.355 314.467 606.051 306.003C601.747 297.491 599.595 287.474 599.595 275.949C599.595 264.617 601.747 254.671 606.051 246.111C610.403 237.504 616.476 230.809 624.271 226.028C632.066 221.198 641.224 218.783 651.745 218.783C658.535 218.783 664.944 219.883 670.969 222.083C677.043 224.234 682.399 227.582 687.037 232.124C691.724 236.667 695.406 242.453 698.084 249.482C700.762 256.464 702.101 264.784 702.101 274.443V282.405H611.789V264.904H677.21C677.162 259.93 676.086 255.507 673.982 251.634C671.878 247.713 668.937 244.629 665.159 242.381C661.429 240.134 657.077 239.01 652.103 239.01C646.795 239.01 642.133 240.301 638.115 242.883C634.098 245.418 630.966 248.765 628.718 252.925C626.519 257.037 625.395 261.556 625.347 266.482V281.759C625.347 288.167 626.519 293.666 628.862 298.256C631.205 302.799 634.481 306.29 638.689 308.729C642.898 311.119 647.823 312.315 653.466 312.315C657.244 312.315 660.664 311.789 663.724 310.737C666.785 309.637 669.439 308.035 671.686 305.931C673.934 303.827 675.632 301.221 676.78 298.113L701.025 300.839C699.495 307.246 696.578 312.841 692.274 317.623C688.018 322.357 682.566 326.039 675.919 328.669C669.271 331.251 661.668 332.542 653.108 332.542Z" fill="black"/>
<path d="M635.87 105.857C635.87 137.247 610.424 162.693 579.034 162.693C547.645 162.693 522.199 137.247 522.199 105.857C522.199 74.4681 547.645 49.022 579.034 49.022C610.424 49.022 635.87 74.4681 635.87 105.857Z" fill="black"/>
<mask id="mask0_649_44663" style="mask-type:alpha" maskUnits="userSpaceOnUse" x="721" y="220" width="111" height="111">
<path d="M721.302 220.191H831.602V330.492H721.302V220.191Z" fill="#C4C4C4"/>
</mask>
<g mask="url(#mask0_649_44663)">
<path d="M831.602 330.492C831.602 391.409 782.219 440.793 721.302 440.793C660.384 440.793 611.001 391.409 611.001 330.492C611.001 269.575 660.384 220.191 721.302 220.191C782.219 220.191 831.602 269.575 831.602 330.492Z" fill="black"/>
</g>
</svg>

<svg width="888" height="398" fill="none" xmlns="http://www.w3.org/2000/svg">
  <path d="M38 220.2h110.3v110.3H38V220.2ZM403.42 220.2h110.3l-110.3 110.3V220.2Z" fill="#000"/>
  <path d="M403.42 220.2h110.3l-110.3 110.3V220.2ZM90.8 162.72c-11 0-20.45-2.41-28.34-7.25a48.37 48.37 0 0 1-18.15-20C40.11 126.9 38 117.04 38 105.9c0-11.19 2.15-21.06 6.46-29.62 4.3-8.6 10.37-15.3 18.22-20.08 7.89-4.83 17.21-7.25 27.97-7.25 8.94 0 16.86 1.65 23.75 4.95a40.57 40.57 0 0 1 16.57 13.84c4.1 5.93 6.45 12.87 7.03 20.8h-24.82c-1-5.3-3.4-9.73-7.18-13.27-3.73-3.58-8.72-5.37-14.99-5.37-5.3 0-9.97 1.43-13.99 4.3-4.01 2.82-7.15 6.88-9.4 12.2-2.2 5.3-3.3 11.66-3.3 19.07 0 7.5 1.1 13.96 3.3 19.37 2.2 5.35 5.29 9.49 9.26 12.4 4.02 2.88 8.73 4.31 14.13 4.31 3.83 0 7.25-.72 10.26-2.15a20.63 20.63 0 0 0 7.67-6.38 24.52 24.52 0 0 0 4.24-10.12H138c-.63 7.8-2.92 14.7-6.9 20.73a40.77 40.77 0 0 1-16.2 14.06c-6.84 3.35-14.88 5.02-24.1 5.02ZM155.28 160.57V50.4h25.18v18.36h1.14c2.01-6.36 5.46-11.26 10.33-14.7a28.43 28.43 0 0 1 16.86-5.24c1.44 0 3.04.07 4.8.21 1.82.1 3.33.27 4.53.5v23.89a27.3 27.3 0 0 0-5.24-1 48.2 48.2 0 0 0-6.81-.5c-4.74 0-9 1.02-12.77 3.08-3.73 2-6.67 4.8-8.83 8.39a23.65 23.65 0 0 0-3.22 12.4v64.78h-25.97ZM275.57 162.72c-11.05 0-20.59-2.3-28.62-6.89a46.63 46.63 0 0 1-18.44-19.65c-4.3-8.51-6.45-18.53-6.45-30.05 0-11.34 2.15-21.28 6.45-29.84 4.35-8.6 10.43-15.3 18.22-20.08 7.8-4.83 16.96-7.25 27.48-7.25 6.79 0 13.2 1.1 19.22 3.3A43.45 43.45 0 0 1 309.5 62.3c4.69 4.54 8.37 10.33 11.05 17.36 2.67 6.98 4.01 15.3 4.01 24.96v7.96h-90.3v-17.5h65.41a27.92 27.92 0 0 0-3.23-13.27c-2.1-3.92-5.04-7-8.82-9.25-3.73-2.25-8.08-3.37-13.06-3.37-5.3 0-9.97 1.29-13.98 3.87a26.7 26.7 0 0 0-9.4 10.04 28.88 28.88 0 0 0-3.37 13.56v15.28c0 6.4 1.17 11.9 3.51 16.5a25.07 25.07 0 0 0 9.83 10.47c4.2 2.39 9.14 3.58 14.78 3.58 3.78 0 7.2-.52 10.26-1.58 3.06-1.1 5.71-2.7 7.96-4.8a20.01 20.01 0 0 0 5.1-7.82l24.24 2.73c-1.53 6.4-4.45 12-8.75 16.78-4.26 4.73-9.71 8.42-16.36 11.05-6.65 2.58-14.25 3.87-22.81 3.87ZM374.2 162.8c-6.99 0-13.27-1.25-18.87-3.74a30.8 30.8 0 0 1-13.2-11.19c-3.2-4.92-4.8-11-4.8-18.22 0-6.21 1.14-11.35 3.44-15.42a26.66 26.66 0 0 1 9.4-9.75 47.44 47.44 0 0 1 13.41-5.53c5.02-1.29 10.21-2.22 15.57-2.8 6.45-.66 11.69-1.26 15.7-1.79 4.02-.57 6.94-1.43 8.76-2.58 1.86-1.2 2.8-3.03 2.8-5.52v-.43c0-5.4-1.6-9.59-4.81-12.55-3.2-2.97-7.82-4.45-13.85-4.45-6.36 0-11.4 1.39-15.13 4.16-3.68 2.77-6.17 6.05-7.46 9.83l-24.25-3.45c1.92-6.7 5.07-12.29 9.47-16.78a41.18 41.18 0 0 1 16.14-10.19 61.75 61.75 0 0 1 21.1-3.44c5.3 0 10.58.62 15.84 1.87a44.6 44.6 0 0 1 14.42 6.16 30.98 30.98 0 0 1 10.48 11.55c2.67 4.88 4.01 10.98 4.01 18.3v73.73h-24.96v-15.14h-.86a31.7 31.7 0 0 1-6.67 8.61 32.06 32.06 0 0 1-10.7 6.38c-4.25 1.58-9.24 2.37-14.98 2.37Zm6.74-19.09c5.21 0 9.73-1.03 13.56-3.08a22.81 22.81 0 0 0 8.82-8.32c2.1-3.44 3.16-7.2 3.16-11.26v-12.99c-.82.67-2.2 1.3-4.16 1.87a58.78 58.78 0 0 1-6.46 1.5c-2.4.43-4.76.82-7.1 1.15l-6.1.86a45.33 45.33 0 0 0-10.4 2.59 17.29 17.29 0 0 0-7.25 5.02c-1.76 2.1-2.65 4.83-2.65 8.17 0 4.78 1.75 8.4 5.24 10.83 3.49 2.44 7.94 3.66 13.34 3.66ZM509.46 50.4v20.08h-63.34V50.4h63.34ZM461.76 24h25.97v103.43c0 3.5.52 6.17 1.57 8.03a8.51 8.51 0 0 0 4.3 3.73c1.78.67 3.74 1 5.9 1 1.62 0 3.1-.11 4.44-.35 1.39-.24 2.44-.46 3.16-.65l4.37 20.3c-1.39.48-3.37 1-5.95 1.58-2.54.57-5.65.9-9.33 1-6.5.2-12.36-.78-17.57-2.94a27.34 27.34 0 0 1-12.41-10.18c-3.01-4.6-4.5-10.33-4.45-17.22V24ZM648.74 160.57V50.4h25.18v18.36h1.14c2.01-6.36 5.46-11.26 10.33-14.7a28.43 28.43 0 0 1 16.86-5.24c1.44 0 3.04.07 4.8.21 1.82.1 3.33.27 4.53.5v23.89a27.3 27.3 0 0 0-5.24-1 48.2 48.2 0 0 0-6.82-.5c-4.73 0-8.99 1.02-12.76 3.08-3.73 2-6.67 4.8-8.83 8.39a23.65 23.65 0 0 0-3.22 12.4v64.78h-25.97ZM811.87 79.52 788.2 82.1a19.02 19.02 0 0 0-3.52-6.74 17.46 17.46 0 0 0-6.6-5.1c-2.77-1.29-6.16-1.93-10.18-1.93-5.4 0-9.95 1.17-13.63 3.51-3.63 2.34-5.43 5.38-5.38 9.11a9.53 9.53 0 0 0 3.51 7.82c2.44 2 6.46 3.66 12.06 4.95l18.79 4.02c10.43 2.24 18.17 5.8 23.24 10.68 5.12 4.88 7.7 11.26 7.75 19.15a29.96 29.96 0 0 1-6.1 18.37c-3.97 5.26-9.5 9.37-16.57 12.33-7.08 2.97-15.2 4.45-24.39 4.45-13.48 0-24.34-2.82-32.56-8.46-8.23-5.7-13.13-13.6-14.71-23.75l25.32-2.43c1.15 4.97 3.59 8.72 7.32 11.26 3.73 2.53 8.58 3.8 14.56 3.8 6.17 0 11.12-1.27 14.85-3.8 3.78-2.54 5.67-5.67 5.67-9.4a9.79 9.79 0 0 0-3.66-7.82c-2.4-2.05-6.12-3.63-11.2-4.73l-18.79-3.95c-10.57-2.2-18.38-5.9-23.45-11.11-5.07-5.26-7.58-11.91-7.53-19.94-.05-6.8 1.79-12.68 5.52-17.65 3.78-5.02 9.01-8.9 15.7-11.62 6.75-2.77 14.52-4.16 23.32-4.16 12.91 0 23.08 2.75 30.49 8.25 7.46 5.5 12.07 12.93 13.84 22.3ZM218.71 374c-9.32 0-17.33-1.27-24.03-3.8-6.7-2.49-12.07-5.83-16.14-10.04a34.76 34.76 0 0 1-8.46-13.99l23.38-5.67a25.73 25.73 0 0 0 4.6 6.39c2 2.15 4.7 3.92 8.1 5.3 3.44 1.44 7.77 2.16 12.98 2.16 7.37 0 13.46-1.8 18.3-5.38 4.82-3.54 7.24-9.38 7.24-17.5v-20.88h-1.3a36.85 36.85 0 0 1-5.87 8.25c-2.54 2.82-5.91 5.19-10.12 7.1-4.16 1.92-9.4 2.87-15.7 2.87-8.47 0-16.15-1.98-23.03-5.95-6.84-4.02-12.3-10-16.36-17.93-4.02-7.99-6.03-17.98-6.03-29.99 0-12.1 2.01-22.3 6.03-30.62 4.07-8.37 9.54-14.7 16.43-19.01a42.22 42.22 0 0 1 23.02-6.53c6.46 0 11.77 1.1 15.93 3.3 4.2 2.15 7.56 4.76 10.04 7.82a43.09 43.09 0 0 1 5.67 8.54h1.43v-18.22h25.61v111.96c0 9.42-2.25 17.22-6.74 23.39-4.5 6.17-10.64 10.78-18.44 13.84-7.8 3.06-16.64 4.59-26.54 4.59Zm.22-65.56c5.5 0 10.18-1.34 14.06-4.01 3.87-2.68 6.81-6.53 8.82-11.55 2-5.02 3.01-11.05 3.01-18.08 0-6.93-1-13-3.01-18.22-1.96-5.2-4.88-9.25-8.75-12.12-3.83-2.92-8.54-4.37-14.13-4.37-5.79 0-10.62 1.5-14.5 4.51-3.87 3.02-6.78 7.15-8.74 12.41-1.97 5.22-2.94 11.14-2.94 17.8 0 6.73.97 12.64 2.94 17.7 2 5.03 4.95 8.95 8.82 11.77 3.92 2.78 8.73 4.16 14.42 4.16ZM324.71 332.61c-6.98 0-13.27-1.24-18.86-3.73a30.79 30.79 0 0 1-13.2-11.19c-3.2-4.92-4.81-11-4.81-18.21 0-6.22 1.15-11.36 3.44-15.43a26.64 26.64 0 0 1 9.4-9.75 47.39 47.39 0 0 1 13.41-5.52c5.03-1.3 10.21-2.23 15.57-2.8 6.46-.67 11.7-1.27 15.71-1.8 4.02-.57 6.93-1.43 8.75-2.58 1.87-1.2 2.8-3.03 2.8-5.52v-.43c0-5.4-1.6-9.59-4.8-12.55-3.21-2.97-7.83-4.45-13.85-4.45-6.36 0-11.4 1.39-15.14 4.16-3.68 2.78-6.17 6.05-7.46 9.83l-24.24-3.44c1.9-6.7 5.07-12.3 9.46-16.79a41.2 41.2 0 0 1 16.15-10.18 61.75 61.75 0 0 1 21.08-3.45c5.31 0 10.6.63 15.86 1.87a44.58 44.58 0 0 1 14.42 6.17 30.97 30.97 0 0 1 10.47 11.55c2.68 4.87 4.02 10.97 4.02 18.28v73.74h-24.97v-15.13h-.86a31.71 31.71 0 0 1-6.67 8.6 32.1 32.1 0 0 1-10.69 6.39c-4.25 1.57-9.25 2.36-14.99 2.36Zm6.74-19.08c5.22 0 9.74-1.02 13.56-3.08a22.8 22.8 0 0 0 8.82-8.32 21.2 21.2 0 0 0 3.16-11.26v-12.98c-.81.67-2.2 1.29-4.16 1.86a58.78 58.78 0 0 1-6.46 1.5c-2.39.44-4.75.82-7.1 1.15l-6.1.87a45.3 45.3 0 0 0-10.4 2.58 17.27 17.27 0 0 0-7.24 5.02c-1.77 2.1-2.65 4.83-2.65 8.18 0 4.78 1.74 8.39 5.23 10.83 3.5 2.44 7.94 3.65 13.34 3.65ZM586.65 220.22v20.08h-63.34v-20.08h63.34Zm-47.7-26.4h25.97v103.43c0 3.5.52 6.17 1.58 8.04a8.52 8.52 0 0 0 4.3 3.72c1.77.68 3.73 1.01 5.88 1.01 1.63 0 3.11-.12 4.45-.36 1.39-.24 2.44-.45 3.15-.65l4.38 20.3c-1.39.48-3.37 1-5.95 1.58-2.54.58-5.65.91-9.33 1-6.5.2-12.36-.78-17.57-2.93a27.34 27.34 0 0 1-12.41-10.19c-3.02-4.59-4.5-10.33-4.45-17.21V193.82ZM653.1 332.54c-11.04 0-20.58-2.3-28.61-6.88A46.63 46.63 0 0 1 606.05 306c-4.3-8.5-6.45-18.53-6.45-30.05 0-11.33 2.15-21.28 6.45-29.84 4.35-8.6 10.43-15.3 18.22-20.08 7.8-4.83 16.95-7.25 27.48-7.25 6.78 0 13.2 1.1 19.22 3.3a43.44 43.44 0 0 1 16.07 10.04c4.68 4.55 8.37 10.33 11.04 17.36 2.68 6.98 4.02 15.3 4.02 24.96v7.96H611.8v-17.5h65.42a27.93 27.93 0 0 0-3.23-13.27c-2.1-3.92-5.04-7-8.82-9.25-3.73-2.25-8.08-3.37-13.06-3.37-5.3 0-9.97 1.3-13.99 3.87a26.7 26.7 0 0 0-9.4 10.05 28.9 28.9 0 0 0-3.36 13.55v15.28c0 6.4 1.17 11.9 3.51 16.5a25.08 25.08 0 0 0 9.83 10.47c4.2 2.39 9.13 3.58 14.78 3.58 3.77 0 7.2-.52 10.25-1.57 3.06-1.1 5.72-2.7 7.97-4.8a20.02 20.02 0 0 0 5.09-7.83l24.25 2.73a37.8 37.8 0 0 1-8.76 16.78c-4.25 4.74-9.7 8.42-16.35 11.05-6.65 2.58-14.25 3.87-22.81 3.87ZM635.87 105.86a56.84 56.84 0 1 1-113.67 0 56.84 56.84 0 0 1 113.67 0Z" fill="#000"/>
  <mask id="a" style="mask-type:alpha" maskUnits="userSpaceOnUse" x="721" y="220" width="111" height="111">
    <path d="M721.3 220.2h110.3v110.3H721.3V220.2Z" fill="#C4C4C4"/>
  </mask>
  <g mask="url(#a)">
    <path d="M831.6 330.5c0 60.9-49.38 110.3-110.3 110.3-60.92 0-110.3-49.4-110.3-110.3 0-60.93 49.38-110.3 110.3-110.3 60.92 0 110.3 49.38 110.3 110.3Z" fill="#000"/>
  </g>
</svg>
